app/images/markers/numbered/2.svg

<svg height="46" viewBox="0 0 40 46" width="40" xmlns="http://www.w3.org/2000/svg"><g fill="none" fill-rule="evenodd"><path d="m20 46.037c1.732 0 3.412-6.257 5.015-6.67 8.618-2.227 14.985-10.054 14.985-19.367 0-11.046-8.954-20-20-20s-20 8.954-20 20c0 9.318 6.372 17.147 14.996 19.37 1.6.41 3.276 6.667 5.004 6.667z" fill="#000" fill-rule="nonzero"/><path d="m20 46.037c1.732 0 3.412-6.257 5.015-6.67 8.618-2.227 14.985-10.054 14.985-19.367 0-11.046-8.954-20-20-20s-20 8.954-20 20c0 9.318 6.372 17.147 14.996 19.37 1.6.41 3.276 6.667 5.004 6.667z" fill="#00a862"/><g transform="translate(11 8)"><path d="m17.688 2.35c-.108-.46-.587-1.65-1.5-1.65h-14.378c-.912 0-1.39 1.19-1.503 1.682l-.295 1.634c-.033.188.018.38.14.527.122.146.302.23.493.23h.824l1.158 16.44c.06.962.863 1.715 1.83 1.715h9.09c.967 0 1.77-.753 1.83-1.71l1.156-16.445h.826c.192 0 .372-.084.494-.23s.173-.34.14-.527l-.302-1.666z" fill="#fff" fill-rule="nonzero"/><path d="m5.48026368 17v-1.4853516l.1015625-.1396484c.50358325-.6728549 1.01985413-1.2399065 1.54882813-1.7011719l.7680664-.6791992c1.26530581-1.1171931 1.89794922-2.0968382 1.89794922-2.9389648 0-.98177578-.55858816-1.47265629-1.67578125-1.47265629-.68978209 0-1.48957878.23274507-2.39941406.69824219v-1.37744141c.95638499-.35547052 1.88101767-.53320312 2.77392578-.53320312.99870291 0 1.7984996.23591886 2.3994141.70776367.6009144.47184481.9013671 1.10343029.9013671 1.89477539 0 .54590117-.1459946 1.04312927-.4379882 1.49169927-.2919937.4485699-.8061487.9690725-1.5424805 1.5615234l-.63476563.5078125c-.88444452.710941-1.40917886 1.3710907-1.57421875 1.9804687h4.15136718v1.4853516z" fill="#4a4a4a"/></g></g></svg>

<?xml version="1.0" encoding="UTF-8"?>
<svg width="40px" height="46px" viewBox="0 0 40 46" version="1.1" xmlns="http://www.w3.org/2000/svg" xmlns:xlink="http://www.w3.org/1999/xlink">
    <!-- Generator: Sketch 47.1 (45422) - http://www.bohemiancoding.com/sketch -->
    <title>starbucks-marker</title>
    <desc>Created with Sketch.</desc>
    <defs></defs>
    <g id="Page-1" stroke="none" stroke-width="1" fill="none" fill-rule="evenodd">
        <g id="starbucks-marker">
            <g id="Group">
                <g id="b-link">
                    <g id="b">
                        <g id="path-1-link" fill-rule="nonzero" fill="#000000">
                            <path d="M20,46.037 C21.732,46.037 23.412,39.78 25.015,39.367 C33.633,37.14 40,29.313 40,20 C40,8.954 31.046,0 20,0 C8.954,0 0,8.954 0,20 C0,29.318 6.372,37.147 14.996,39.37 C16.596,39.78 18.272,46.037 20,46.037 Z" id="path-1"></path>
                        </g>
                        <g id="path-1-link" fill="#00A862">
                            <path d="M20,46.037 C21.732,46.037 23.412,39.78 25.015,39.367 C33.633,37.14 40,29.313 40,20 C40,8.954 31.046,0 20,0 C8.954,0 0,8.954 0,20 C0,29.318 6.372,37.147 14.996,39.37 C16.596,39.78 18.272,46.037 20,46.037 Z" id="path-1"></path>
                        </g>
                    </g>
                </g>
            </g>
            <g id="Group" transform="translate(11.000000, 8.000000)">
                <g id="d-link">
                    <path d="M17.688,2.35 C17.58,1.89 17.101,0.7 16.188,0.7 L1.81,0.7 C0.898,0.7 0.42,1.89 0.307,2.382 L0.012,4.016 C-0.021,4.204 0.03,4.396 0.152,4.543 C0.274,4.689 0.454,4.773 0.645,4.773 L1.469,4.773 L2.627,21.213 C2.687,22.175 3.49,22.928 4.457,22.928 L13.547,22.928 C14.514,22.928 15.317,22.175 15.377,21.218 L16.533,4.773 L17.359,4.773 C17.551,4.773 17.731,4.689 17.853,4.543 C17.975,4.397 18.026,4.203 17.993,4.016 L17.691,2.35 L17.688,2.35 Z" id="d" fill="#FFFFFF" fill-rule="nonzero"></path>
                    <path d="M5.48026368,17 L5.48026368,15.5146484 L5.58182618,15.375 C6.08540943,14.7021451 6.60168031,14.1350935 7.13065431,13.6738281 L7.89872071,12.9946289 C9.16402652,11.8774358 9.79666993,10.8977907 9.79666993,10.0556641 C9.79666993,9.07388832 9.23808177,8.58300781 8.12088868,8.58300781 C7.43110659,8.58300781 6.6313099,8.81575288 5.72147462,9.28125 L5.72147462,7.90380859 C6.67785961,7.54833807 7.60249229,7.37060547 8.4954004,7.37060547 C9.49410331,7.37060547 10.2939,7.60652433 10.8948145,8.07836914 C11.4957289,8.55021395 11.7961816,9.18179943 11.7961816,9.97314453 C11.7961816,10.5190457 11.650187,11.0162738 11.3581934,11.4648438 C11.0661997,11.9134137 10.5520447,12.4339163 9.8157129,13.0263672 L9.18094727,13.5341797 C8.29650275,14.2451207 7.77176841,14.9052704 7.60672852,15.5146484 L11.7580957,15.5146484 L11.7580957,17 L5.48026368,17 Z" id="2" fill="#4A4A4A"></path>
                </g>
            </g>
        </g>
    </g>
</svg>
